dist/intermediate-svg/glyphicons-basic-remove.svg

<?xml version="1.0" encoding="utf-8"?><svg width="12" height="15" fill="none" xmlns="http://www.w3.org/2000/svg" viewBox="0 0 12 15"><path d="M.56 13.88c0 .616.504 1.12 1.12 1.12h7.84c.616 0 1.12-.504 1.12-1.12V4.92H.56v8.96zm7.28-6.72c0-.336.224-.56.56-.56.336 0 .56.224.56.56v5.6c0 .336-.224.56-.56.56-.336 0-.56-.224-.56-.56v-5.6zm-2.8 0c0-.336.224-.56.56-.56.336 0 .56.224.56.56v5.6c0 .336-.224.56-.56.56-.336 0-.56-.224-.56-.56v-5.6zm-2.8 0c0-.336.224-.56.56-.56.336 0 .56.224.56.56v5.6c0 .336-.224.56-.56.56-.336 0-.56-.224-.56-.56v-5.6zm8.96-4.48V3.8H0V2.68c0-.336.224-.56.56-.56h3.36v-.56c0-.336.224-.56.56-.56h2.24c.336 0 .56.224.56.56v.56h3.36c.336 0 .56.224.56.56z" fill="#fff"/><path d="M.56 12.88c0 .616.504 1.12 1.12 1.12h7.84c.616 0 1.12-.504 1.12-1.12V3.92H.56v8.96zm7.28-6.72c0-.336.224-.56.56-.56.336 0 .56.224.56.56v5.6c0 .336-.224.56-.56.56-.336 0-.56-.224-.56-.56v-5.6zm-2.8 0c0-.336.224-.56.56-.56.336 0 .56.224.56.56v5.6c0 .336-.224.56-.56.56-.336 0-.56-.224-.56-.56v-5.6zm-2.8 0c0-.336.224-.56.56-.56.336 0 .56.224.56.56v5.6c0 .336-.224.56-.56.56-.336 0-.56-.224-.56-.56v-5.6zm8.96-4.48V2.8H0V1.68c0-.336.224-.56.56-.56h3.36V.56c0-.336.224-.56.56-.56h2.24c.336 0 .56.224.56.56v.56h3.36c.336 0 .56.224.56.56z" fill="#D9534F"/></svg>

<?xml version="1.0" encoding="utf-8"?><svg width="12" height="15" fill="none" xmlns="http://www.w3.org/2000/svg" viewBox="0 0 12 15"><path d="M0.56 13.88C0.56 14.496 1.064 15 1.68 15H9.52C10.136 15 10.64 14.496 10.64 13.88V4.92H0.56V13.88ZM7.84 7.16C7.84 6.824 8.064 6.6 8.4 6.6C8.736 6.6 8.96 6.824 8.96 7.16V12.76C8.96 13.096 8.736 13.32 8.4 13.32C8.064 13.32 7.84 13.096 7.84 12.76V7.16ZM5.04 7.16C5.04 6.824 5.264 6.6 5.6 6.6C5.936 6.6 6.16 6.824 6.16 7.16V12.76C6.16 13.096 5.936 13.32 5.6 13.32C5.264 13.32 5.04 13.096 5.04 12.76V7.16ZM2.24 7.16C2.24 6.824 2.464 6.6 2.8 6.6C3.136 6.6 3.36 6.824 3.36 7.16V12.76C3.36 13.096 3.136 13.32 2.8 13.32C2.464 13.32 2.24 13.096 2.24 12.76V7.16ZM11.2 2.68V3.8H0V2.68C0 2.344 0.224 2.12 0.56 2.12H3.92V1.56C3.92 1.224 4.144 1 4.48 1H6.72C7.056 1 7.28 1.224 7.28 1.56V2.12H10.64C10.976 2.12 11.2 2.344 11.2 2.68Z" fill="#fff"/><path d="M0.56 12.88C0.56 13.496 1.064 14 1.68 14H9.52C10.136 14 10.64 13.496 10.64 12.88V3.92H0.56V12.88ZM7.84 6.16C7.84 5.824 8.064 5.6 8.4 5.6C8.736 5.6 8.96 5.824 8.96 6.16V11.76C8.96 12.096 8.736 12.32 8.4 12.32C8.064 12.32 7.84 12.096 7.84 11.76V6.16ZM5.04 6.16C5.04 5.824 5.264 5.6 5.6 5.6C5.936 5.6 6.16 5.824 6.16 6.16V11.76C6.16 12.096 5.936 12.32 5.6 12.32C5.264 12.32 5.04 12.096 5.04 11.76V6.16ZM2.24 6.16C2.24 5.824 2.464 5.6 2.8 5.6C3.136 5.6 3.36 5.824 3.36 6.16V11.76C3.36 12.096 3.136 12.32 2.8 12.32C2.464 12.32 2.24 12.096 2.24 11.76V6.16ZM11.2 1.68V2.8H0V1.68C0 1.344 0.224 1.12 0.56 1.12H3.92V0.56C3.92 0.224 4.144 0 4.48 0H6.72C7.056 0 7.28 0.224 7.28 0.56V1.12H10.64C10.976 1.12 11.2 1.344 11.2 1.68Z" fill="#D9534F"/></svg>
